icons/android/topsites-24.svg

<!-- This Source Code Form is subject to the terms of the Mozilla Public
   - License, v. 2.0. If a copy of the MPL was not distributed with this
   - file, You can obtain one at http://mozilla.org/MPL/2.0/. --><svg xmlns="http://www.w3.org/2000/svg" width="24" height="24" viewBox="0 0 24 24"><path fill="context-fill" fill-rule="evenodd" d="M9.667 3H4.333C3.597 3 3 3.597 3 4.333v5.334C3 10.403 3.597 11 4.333 11h5.334C10.403 11 11 10.403 11 9.667V4.333C11 3.597 10.403 3 9.667 3m10 0h-5.334C13.597 3 13 3.597 13 4.333v5.334c0 .736.597 1.333 1.333 1.333h5.334C20.403 11 21 10.403 21 9.667V4.333C21 3.597 20.403 3 19.667 3m-10 10H4.333C3.597 13 3 13.597 3 14.333v5.334C3 20.403 3.597 21 4.333 21h5.334c.736 0 1.333-.597 1.333-1.333v-5.334C11 13.597 10.403 13 9.667 13m10 0h-5.334c-.736 0-1.333.597-1.333 1.333v5.334c0 .736.597 1.333 1.333 1.333h5.334c.736 0 1.333-.597 1.333-1.333v-5.334c0-.736-.597-1.333-1.333-1.333"/></svg>

<!-- This Source Code Form is subject to the terms of the Mozilla Public
   - License, v. 2.0. If a copy of the MPL was not distributed with this
   - file, You can obtain one at http://mozilla.org/MPL/2.0/. -->
<svg xmlns="http://www.w3.org/2000/svg" width="24" height="24" viewBox="0 0 24 24">
  <path fill="context-fill" fill-rule="evenodd" d="M9.667 3L4.333 3C3.597 3 3 3.597 3 4.333L3 9.667C3 10.403 3.597 11 4.333 11L9.667 11C10.403 11 11 10.403 11 9.667L11 4.333C11 3.597 10.403 3 9.667 3M19.667 3L14.333 3C13.597 3 13 3.597 13 4.333L13 9.667C13 10.403 13.597 11 14.333 11L19.667 11C20.403 11 21 10.403 21 9.667L21 4.333C21 3.597 20.403 3 19.667 3M9.667 13L4.333 13C3.597 13 3 13.597 3 14.333L3 19.667C3 20.403 3.597 21 4.333 21L9.667 21C10.403 21 11 20.403 11 19.667L11 14.333C11 13.597 10.403 13 9.667 13M19.667 13L14.333 13C13.597 13 13 13.597 13 14.333L13 19.667C13 20.403 13.597 21 14.333 21L19.667 21C20.403 21 21 20.403 21 19.667L21 14.333C21 13.597 20.403 13 19.667 13"/>
</svg>
